build/img/success-modal-bg.svg

<svg width="400" height="84" viewBox="0 0 400 84" fill="none" xmlns="http://www.w3.org/2000/svg">
<path d="M0 4.5L16.7576 1.61075C34.1925 -1.39525 52.1273 0.843845 68.2879 8.04413C85.0237 15.5006 103.648 17.6305 121.635 14.145L146.25 9.375L180.48 2.74197C192.394 0.433277 204.628 0.31247 216.586 2.38546L274.985 12.5099C290.124 15.1346 305.665 14.2352 320.401 9.88145L331.174 6.69858C341.98 3.50582 353.248 2.16242 364.502 2.72512L400 4.5V84H0V4.5Z" fill="#07BBF0" fill-opacity="0.2"/>
</svg>

<svg width="400" height="84" fill="none" xmlns="http://www.w3.org/2000/svg"><path d="M0 4.5l16.758-2.89a89.325 89.325 0 0 1 51.53 6.434 89.327 89.327 0 0 0 53.347 6.101l24.615-4.77 34.23-6.633a100 100 0 0 1 36.106-.357l58.399 10.125a100 100 0 0 0 45.416-2.629L331.174 6.7a99.997 99.997 0 0 1 33.328-3.974L400 4.5V84H0V4.5z" fill="#07BBF0" fill-opacity=".2"/></svg>
